X: 11
T: Yigeren zouxia xin nanhuo
L: 1/8
M: 2/4
K: A
B B B3/ B/ [I:setbarnb 1]| 
B> c' b b | 
a b a b | 
B4 | 
B> B A F | 
FE2e | 
F2A2 | 
E4 |]

@@@ Tune index: 8885
